static/fa/svgs/solid/person-chalkboard.svg

<svg xmlns="http://www.w3.org/2000/svg" viewBox="0 0 640 512"><!--! Font Awesome Free 6.1.1 by @fontawesome - https://fontawesome.com License - https://fontawesome.com/license/free (Icons: CC BY 4.0, Fonts: SIL OFL 1.1, Code: MIT License) Copyright 2022 Fonticons, Inc. --><path d="M144 48C144 21.49 165.5 0 192 0C218.5 0 240 21.49 240 48C240 74.51 218.5 96 192 96C165.5 96 144 74.51 144 48zM152 512C134.3 512 120 497.7 120 480V256.9L91.43 304.5C82.33 319.6 62.67 324.5 47.52 315.4C32.37 306.3 27.47 286.7 36.58 271.5L94.85 174.6C112.2 145.7 143.4 128 177.1 128H320V48C320 21.49 341.5 .0003 368 .0003H592C618.5 .0003 640 21.49 640 48V272C640 298.5 618.5 320 592 320H368C341.5 320 320 298.5 320 272V224H384V256H576V64H384V128H400C417.7 128 432 142.3 432 160C432 177.7 417.7 192 400 192H264V480C264 497.7 249.7 512 232 512C214.3 512 200 497.7 200 480V352H184V480C184 497.7 169.7 512 152 512L152 512z"/></svg>

<svg xmlns="http://www.w3.org/2000/svg" viewBox="0 0 640 512"><!--! Font Awesome Free 6.1.1 by @fontawesome - https://fontawesome.com License - https://fontawesome.com/license/free (Icons: CC BY 4.0, Fonts: SIL OFL 1.1, Code: MIT License) Copyright 2022 Fonticons, Inc.--><path d="M144 48c0-26.51 21.5-48 48-48s48 21.49 48 48-21.5 48-48 48-48-21.49-48-48zm8 464c-17.7 0-32-14.3-32-32V256.9l-28.57 47.6c-9.1 15.1-28.76 20-43.91 10.9-15.15-9.1-20.05-28.7-10.94-43.9l58.27-96.9C112.2 145.7 143.4 128 177.1 128H320V48c0-26.51 21.5-48 48-48h224c26.5 0 48 21.49 48 48v224c0 26.5-21.5 48-48 48H368c-26.5 0-48-21.5-48-48v-48h64v32h192V64H384v64h16c17.7 0 32 14.3 32 32s-14.3 32-32 32H264v288c0 17.7-14.3 32-32 32s-32-14.3-32-32V352h-16v128c0 17.7-14.3 32-32 32z"/></svg>
